!!!!SEGMENT: pl-sa--144-a-iii-44--003_anonim--msza-dominikalnska-patrem.krn
!!!cenid: 17xx:1669
!!!COM: Anonim
!!!COM-rismID: pe30004985
!!!CDT:
!!!CNT:
!!!OPR: Msza Dominikańska
!!!OTL: Patrem
!!!OMV: 003
!!!PDT:
!!!AGN: Sacred; Mass
!!!SMS-siglum: PL-SA
!!!SMS-shelfmark: 144/A III 44
!!!SMS-shelfwork: 001-003 M
!!!SMS-variant:
!!!SMS-altvar:
!!!NIFC-rismSourceID: 1001035510
!!!NIFC-rismChildID: 1001035510
!!!NIFC-islandoraID: none
!!!URL-pdf-islandora:
!!!URL-scan: https://bc.bdsandomierz.pl/dlibra/publication/1501/edition/1469/content @EN{Scan in the Sandomierz Diocese Digital Library} @PL{Skany w portalu Cyfrowa Biblioteka Diecezjalna w Sandomierzu}
!!!IIIF:
!!!ONB-nifc: UWAGA: części Mszy: 1. Kyrie, 2. Laudamus, 3. Patrem, 4. Sanctus, 5. Agnus Dei
!!!AIN: 2 soprn
!!!key: F
**kern	**text	**kern	**text
*part2	*part2	*part1	*part1
*staff2	*staff2	*staff1	*staff1
*I"Canto 2do.	*	*I"Canto Primo	*
*I'S II	*	*I'S I	*
*ICvox	*	*ICvox	*
*Isoprn	*	*Isoprn	*
*clefC1	*	*clefC1	*
*k[b-]	*	*k[b-]	*
*F:	*	*F:	*
*M2/2	*	*M2/2	*
*met(C.|)	*	*met(C.|)	*
=1	=1	=1	=1
!!LO:TX:t=P:problem:2\right	!	!	!
!	!	!LO:TX:t=P:problem=podwójne odpisy głosu w źródle	!
1a	Pa-	1cc	Pa-
=2	=2	=2	=2
1f	.	1a	.
=3	=3	=3	=3
2g/	-tre	2b-\	-tre
2e/	om-	2g\	om-
=4	=4	=4	=4
2f/	-ni-	2a\	-ni-
2g/	-po-	2b-\	-po-
=5	=5	=5	=5
!LO:N:vis=2	!	!LO:N:vis=2	!
2f/	-ten-	2a\	-ten-
4e/	.	4g/	.
4d/	.	4f/	.
=6	=6	=6	=6
2e/	-tem	2g/	-tem
2e/	fa-	2g/	fa-
=7	=7	=7	=7
2f/	-cto-	2a\	-cto-
2f/	-rem	2a\	-rem
=8	=8	=8	=8
2d/	cae-	2bn\	cae-
4e/	-li	4cc\	-li
4e/	et	4cc\	et
!	!	!LO:LB:g=original	!
=9	=9	=9	=9
2e/	ter-	2cc\	ter-
2d/	-ra-	2bn\	-ra-
=10	=10	=10	=10
1e	-e	1cc	-e
=11	=11	=11	=11
2g\	vi-	2b-\	vi-
2a\	-si-	2cc\	-si-
!LO:LB:g=original	!	!	!
=12	=12	=12	=12
2.g/	-bi-	2.b-\	-bi-
4g/	-li-	4b-\	-li-
=13	=13	=13	=13
2f/	-um	2a\	-um
2a\	o-	2cc\	o-
=14	=14	=14	=14
2b-\	.	2dd\	.
2a\	.	2cc\	.
=15	=15	=15	=15
2.g\	-mni-	2.b-\	-mni-
4g\	.	4b-\	.
=16	=16	=16	=16
2f/	-um	2a\	-um
2f/	et	2a\	et
=17	=17	=17	=17
2g/	in-	2b-\	in-
2a/	-vi-	2cc\	-vi-
=18	=18	=18	=18
(4b-\	-si-	(4dd\	-si-
4a\	.	4cc\	.
4g\	.	4b-\	.
4f\)	.	4a\)	.
!	!	!LO:LB:g=original	!
=19	=19	=19	=19
2.e/	bi-	2.g\	bi-
4e/	-li-	4g\	-li-
=20	=20	=20	=20
1f	-um	1a	-um
=21	=21	=21	=21
2a\	et	2cc\	et
2a\	ex	2cc\	ex
=22	=22	=22	=22
2b-\	Pa-	2dd\	Pa-
2g\	-tre	2b-\	-tre
!LO:LB:g=original	!	!	!
=23	=23	=23	=23
2a\	na-	2cc\	na-
2f\	.	2a\	.
=24	=24	=24	=24
2g/	.	2b-\	.
2e/	.	2g\	.
=25	=25	=25	=25
1f	.	1a	.
=26	=26	=26	=26
1e	-tum	1g	-tum
=27	=27	=27	=27
2f/	an-	2a\	an-
2f/	-te	2a\	-te
=28	=28	=28	=28
2e/	om-	2g\	om-
4e/	-ni-	4g\	-ni-
4e/	-a	4g\	-a
=29	=29	=29	=29
1f	Se-	1a	Se-
=30	=30	=30	=30
(4g\	.	(4b-\	.
4a\	.	4cc\	.
4g\	.	4b-\	.
4f\)	.	4a\)	.
!	!	!LO:LB:g=original	!
=31	=31	=31	=31
1e	.	1g	.
=32	=32	=32	=32
2a\	.	2cc\	.
2g\	.	(2b-\	.
=33	=33	=33	=33
2f/	.	2a\)	.
4g/	.	4b-\	.
4f/	.	4a\	.
=34	=34	=34	=34
2.e/	.	2.g\	.
4e/	-cu-	4g\	-cu-
!LO:LB:g=original	!	!	!
=35	=35	=35	=35
1f	-la	1a	-la
=36	=36	=36	=36
2f/	ge-	2a\	ge-
4g/	-ni-	(4b-\	-ni-
4a/	.	4cc\)	.
=37	=37	=37	=37
2b-\	-tum	2dd\	-tum
4a\	non	(4cc\	non
4g\	.	4b-\)	.
=38	=38	=38	=38
2a\	fa-	2cc\	fa-
4g\	.	(4b-\	.
4f\	.	4a\)	.
=39	=39	=39	=39
2g\	.	(2b-\	.
4f/	.	4a\	.
4e/	.	4g\)	.
=40	=40	=40	=40
1f	-ctum,	1a	-ctum
!	!	!LO:LB:g=original	!
=41	=41	=41	=41
2g\	Con	2b-\	Con
2a\	sub-	2cc\	sub-
=42	=42	=42	=42
2g\	-stan-	2b-\	-stan-
4e/	.	4g\	.
4f/	-ti-	4a\	-ti-
=43	=43	=43	=43
2d/	-a-	2bn\	-a-
2e/	-lem	2cc\	-lem
=44	=44	=44	=44
2e/	Pa-	2cc\	Pa-
2d/	.	2bn\	.
!LO:LB:g=original	!	!	!
=45	=45	=45	=45
1e	-tris	1cc	-tris
=46	=46	=46	=46
2f/	per	2a\	per
2f/	quem	2a\	quem
=47	=47	=47	=47
2g\	om-	2b-\	om-
4a\	-ni-	4cc\	-ni-
4a\	-a	4cc\	-a
=48	=48	=48	=48
2.b-\	fa-	2.dd\	fa-
!LO:TX:a:t=e	!	!LO:TX:a:t=e	!
4a\	.	4ee\	.
=49	=49	=49	=49
2g/	.	2b-\	.
2e/	.	2g\	.
=50	=50	=50	=50
2f/	.	2a\	.
2a/	.	2cc\	.
!	!	!LO:LB:g=original	!
=51	=51	=51	=51
2.b-\	.	2.dd\	.
4b-\	-cta	4dd\	-cta
=52	=52	=52	=52
1a	sunt.	1cc	sunt.
=53||	=53||	=53||	=53||
2g/	Qui	2b-\	Qui
2g/	pro-	2b-\	pro-
=54	=54	=54	=54
2b-\	-pter	2dd\	-pter
2a\	nos	2cc\	nos
=55	=55	=55	=55
2.g\	ho-	2.b-\	ho-
4g\	-mi-	4b-\	-mi-
!LO:LB:g=original	!	!	!
=56	=56	=56	=56
2f/	-nes	2a\	-nes
2a\	et	2cc\	et
=57	=57	=57	=57
2b-\	Prop-	2dd\	Prop-
2a\	-ter	2cc\	-ter
=58	=58	=58	=58
2b-\	nos-	2dd\	nos-
4a\	-tram	4cc\	-tram
4g\	sa-	4b-\	sa-
=59	=59	=59	=59
2a\	-lu-	2cc\	-lu-
2f/	-tem	2a\	-tem
!	!	!LO:LB:g=original	!
!	!	!LO:TX:t=P:problem= kolejny takt przekreślony	!
=60	=60	=60	=60
2b-\	de-	2dd\	de-
2a\	-scen-	2cc\	-scen-
=61	=61	=61	=61
2g\	-dit	2b-\	-dit
2f/	de	2a\	de
=62	=62	=62	=62
1e	Cae-	1g	Cae-
=63	=63	=63	=63
1f	-lis	1a	-lis
=64||	=64||	=64||	=64||
!	!	!LO:TX:a:B:t=adagio	!
!LO:TX:a:B:t=adagio	!	!	!
2f/	Et	2a\	Et
2a\	.	2cc\	.
=65	=65	=65	=65
2b-\	in-	2dd\	in-
2b-\	-car-	2dd\	-car-
=66	=66	=66	=66
1a	-na-	1cc	-na-
!LO:LB:g=original	!	!	!
=67	=67	=67	=67
2.g/	.	2.b-\	.
4g/	-tus	4b-\	-tus
=68	=68	=68	=68
1f	eſt.	1a	est
=69	=69	=69	=69
2e/	de	2g\	de
2e/	.	2cc\	.
=70	=70	=70	=70
2.e/	Spi-	2.cc\	Spi-
4d/	-ri-	4bn\	-ri-
!	!	!LO:LB:g=original	!
=71	=71	=71	=71
1e	-tu	1cc	-tu
=72	=72	=72	=72
2e/	San-	2cc\	Sa-
2d/	.	2bn\	.
=73	=73	=73	=73
1e	-cto	1cc	-cto
=74	=74	=74	=74
2f/	Ex	2a\	Ex
2g/	Ma-	2b-X\	Ma-
=75	=75	=75	=75
2g/	-ri-	2b-\	-ri-
2f/	-a	2a\	-a
=76	=76	=76	=76
2.e/	vir-	2.g\	vir-
4f/	-gi-	4a\	-gi-
=77	=77	=77	=77
2f/	-ne	2a\	-ne
2f/	et	2a\	et
=78	=78	=78	=78
1f	ho-	1a	ho-
=79	=79	=79	=79
1f	-mo	1a	-mo
!LO:LB:g=original	!	!	!
=80	=80	=80	=80
2f/	fac-	2a\	fac-
2e/	.	2g\	.
=81	=81	=81	=81
2.f/	.	2.a\	.
4f/	-ctus	4a\	-ctus
=82	=82	=82	=82
1e	eſt.	1g	est
!	!	!LO:LB:g=original	!
=83||	=83||	=83||	=83||
2a\	Cru-	2cc\	Cru-
2a\	-ci-	2cc\	-ci-
=84	=84	=84	=84
4g\	-fi-	4b-\	-fi-
4f\	.	4a\	.
2g\	-xus	2b-\	-xus
=85	=85	=85	=85
4g\	E-	4b-\	E-
4g\	-ti-	4b-\	-ti-
4g\	-am	4b-\	-am
4g\	pro	4b-\	pro
=86	=86	=86	=86
4g/	no-	4b-\	no-
8f/L	.	8a\L	.
8e/J	.	8g\J	.
2f/	-bis	2a\	-bis
=87	=87	=87	=87
2a\	Sub	2cc\	Sub
2b-\	pon-	2dd\	pon-
=88	=88	=88	=88
2.a\	-ti-	2.cc\	-ti-
4a\	-o	4cc\	-o
=89	=89	=89	=89
2g/	pi-	2b-\	pi-
2e/	.	2g\	.
!LO:LB:g=original	!	!	!
=90	=90	=90	=90
2f/	-la-	2a\	-la-
2f/	-to	2a\	-to
=91	=91	=91	=91
2a\	Paſ-	2cc\	Paſ-
2a\	-sus	2cc\	-sus
!	!	!LO:LB:g=original	!
=92	=92	=92	=92
2b-\	et	2dd\	et
2g\	se-	2b-\	se-
=93	=93	=93	=93
2a\	-pul-	2cc\	-pul-
2e/	-tus	2g\	-tus
=94	=94	=94	=94
1f	eſt.	1a	eſt.
=95||	=95||	=95||	=95||
!LO:TX:a:B:t=allo.	!	!LO:TX:a:B:t=allo.	!
2.f/	Et	2.a\	Et
4g/	.	4b-\	.
=96	=96	=96	=96
2a\	re-	2cc\	re-
4g\	-sur-	4b-\	-sur-
4f\	.	4a\	-re-
=97	=97	=97	=97
2g/	-re-	2b-\	.
2e/	.	2g\	.
=98	=98	=98	=98
2f/	.	2a\	.
4e/	.	4g\	.
4d/	.	4f\	.
=99	=99	=99	=99
2e/	.	2g\	.
2a\	.	2cc\	.
!LO:LB:g=original	!	!	!
=100	=100	=100	=100
2g/	.	2b-\	.
4f/	.	4a\	.
4e/	.	4g\	.
=101	=101	=101	=101
1f	-xit.	1a	-xit
=102	=102	=102	=102
2f/	ter-	2a\	ter-
4g/	-ti-	4b-\	-ti-
4a/	-a	4cc\	-a
!	!	!LO:LB:g=original	!
=103	=103	=103	=103
1b-	Di-	1dd	Di-
=104	=104	=104	=104
2a\	-e	2cc\	-e
2g\	se-	2b-\	se-
=105	=105	=105	=105
2g/	-cun-	2b-\	-cun-
4f/	.	4a\	.
4e/	.	4g\	.
=106	=106	=106	=106
2f/	-dum	2a\	-dum
4e/	scrip-	4g\	scrip-
4d/	.	4f\	-tu-
=107	=107	=107	=107
2e/	-tu-	2g/	.
2c/	.	2e/	.
=108	=108	=108	=108
2.f/	.	2.f/	.
4e/	.	4g/	.
=109	=109	=109	=109
2.f/	.	2.a\	.
4g/	.	4b-\	.
=110	=110	=110	=110
1e	.	1g	.
=111	=111	=111	=111
1f	-ras.	1a	-ras
!LO:LB:g=original	!	!	!
=112||	=112||	=112||	=112||
2f/	Et	2a\	Et
2g/	.	2b-\	.
=113	=113	=113	=113
4e/	i-	4g\	i-
4e/	-te-	4g\	-te-
4f/	-rum	4a\	-rum
4f/	ven-	4a\	ven-
!	!	!LO:LB:g=original	!
=114	=114	=114	=114
2a\	.	2cc\	.
4b-\	-tu-	4dd\	-tu-
4a\	-rus	4cc\	-rus
=115	=115	=115	=115
2g\	eſt	2b-\	eſt
4a\	.	4cc\	.
4g\	cum	4b-\	cum
=116	=116	=116	=116
2.f/	glo-	2.a\	glo-
4f/	-ri-	4a\	-ri-
=117	=117	=117	=117
1e	-a	1g	-a
=118	=118	=118	=118
2f/	Ji-	2a\	Ji-
2e/	-di-	2g\	-di-
=119	=119	=119	=119
1f	-ca-	1a	-ca-
=120	=120	=120	=120
1e	-re	1g	-re
=121	=121	=121	=121
2g\	vi-	2b-\	vi-
4f/	-vos	4a\	-vos
4f/	et	4a\	et
=122	=122	=122	=122
1g	mor-	1b-	mor-
=123	=123	=123	=123
2.g\	.	2.b-\	.
4g\	-tu-	4b-\	-tu-
!LO:LB:g=original	!	!	!
=124	=124	=124	=124
1f	-os	1a	-os
=125	=125	=125	=125
2g/	Cu-	2b-\	cu-
2f/	-ius	2a\	-jus
=126	=126	=126	=126
2g/	Re-	2b-\	Re-
2e/	-gni	2g\	-gni
!	!	!LO:LB:g=original	!
=127	=127	=127	=127
2f/	nón	2a\	nón
2g/	.	2b-\	.
=128	=128	=128	=128
2g/	e-	2b-\	e-
2e/	.	2g\	.
=129	=129	=129	=129
1f	-rit	1a	-rit
=130	=130	=130	=130
1e	fi-	1g	fi-
=131	=131	=131	=131
1f	-nis	1a	-nis
=132||	=132||	=132||	=132||
2f/	Qui	2a\	Qui
2a\	cum	2cc\	cŭm
=133	=133	=133	=133
2b-\	Pa-	2dd\	Pa-
2b-\	-tre	2dd\	-tre
=134	=134	=134	=134
2e/	et	2cc#X\	et
2f/	.	2dd\	.
=135	=135	=135	=135
2.f/	fi-	2.dd\	fi-
4e/	-li-	4ccn\	-li-
=136	=136	=136	=136
1f	-o	1dd	-o
!LO:LB:g=original	!	!	!
=137	=137	=137	=137
2f/	si-	2a\	si-
2f/	-mul	2a\	-mul
=138	=138	=138	=138
2e/	a-	2g\	a-
2f/	-do-	2a\	-do-
=139	=139	=139	=139
2f/	-ra-	2a\	-ra-
2e/	.	2g\	.
!	!	!LO:LB:g=original	!
=140	=140	=140	=140
2f/	-tur	2a\	-tur
2f/	et	2a\	et.
=141	=141	=141	=141
2a\	Con-	2cc\	Con-
2g\	-glo-	2b-\	-glo-
=142	=142	=142	=142
2f/	-ri-	2a\	-ri-
2e/	-fi-	2g\	-fi-
=143	=143	=143	=143
1f	-a-	1a	-ca-
=144	=144	=144	=144
1e	-tur	1g	-tur
=145	=145	=145	=145
2e/	qui	2g\	qui
2f/	lo-	2a\	lo-
=146	=146	=146	=146
2.d/	-cu-	2.bn\	-cu-
4d/	-tus	4b\	-tus
=147	=147	=147	=147
1e	eſt.	1cc	eſt.
=148	=148	=148	=148
2f/	per	2a\	per
2a\	pro-	2cc\	pro-
=149	=149	=149	=149
2.b-\	-phe-	2.dd\	-phe-
4a\	.	4cc\	.
=150	=150	=150	=150
4g/	.	4b-X\	.
4f/	.	4a\	.
4e/	.	4g\	.
4f/	.	4a\	.
!LO:LB:g=original	!	!	!
=151	=151	=151	=151
1g	.	1b-	.
=152	=152	=152	=152
1f	-tas	1a	-tas
!	!	!LO:LB:g=original	!
=153||	=153||	=153||	=153||
1f	Con-	1a	Con-
=154	=154	=154	=154
2a\	-fi-	2cc\	-fi-
4b-\	-te-	4dd\	-te-
4a\	-or	4cc\	-or
=155	=155	=155	=155
2g\	u-	2b-\	u-
4a\	-num	4cc\	-num
4g\	.	4b-\	.
=156	=156	=156	=156
2f/	ba-	2a\	ba-
4g/	.	4b-\	.
4e/	.	4g\	.
=157	=157	=157	=157
2e/	-ptis-	2g\	-ptis-
2e/	-mam	2g\	-mam
=158	=158	=158	=158
2.g/	in	2.b-\	in
4a\	re-	4cc\	re-
=159	=159	=159	=159
2.g\	-miſ-	2.b-\	-miſ-
4a\	si-	4cc\	si-
=160	=160	=160	=160
2g/	-o-	2b-\	-o-
2f/	.	2a\	.
=161	=161	=161	=161
1e	-nem	1g	-nem
=162	=162	=162	=162
2f/	pec-	2a\	pec-
2e/	-ca-	2g\	-ca-
!LO:LB:g=original	!	!	!
=163	=163	=163	=163
1f	-to-	1a	-to-
=164	=164	=164	=164
1e	-rum	1g	-rum
!	!	!LO:LB:g=original	!
=165	=165	=165	=165
2f/	pec-	2a\	pec-
2e/	-ca-	2g\	-ca-
=166	=166	=166	=166
2f/	-to-	2a\	-to-
4g/	.	4b-\	.
4f/	.	4a\	.
=167	=167	=167	=167
1e	.	1g	.
=168	=168	=168	=168
1f	-rum,	1a	-rum
=169||	=169||	=169||	=169||
1f	Et	1a	Et
=170	=170	=170	=170
2g/	vi-	2b-\	vi-
4f/	.	4a\	.
4e/	.	4g\	.
=171	=171	=171	=171
2f/	-tam	2a\	-tam
2a\	ven-	2cc\	ven-
=172	=172	=172	=172
2b-\	-tu-	2dd\	-tu-
4a\	.	4cc\	.
4g\	.	4b-\	.
=173	=173	=173	=173
2a\	-ri	2cc\	-ri
2f/	sae-	2a\	se-
=174	=174	=174	=174
2g/	.	2b-\	.
4f/	.	4a\	.
4e/	.	4g\	.
!LO:LB:g=original	!	!	!
=175	=175	=175	=175
2.f/	.	2.a\	.
4g/	.	4b-\	.
=176	=176	=176	=176
2.e/	-cu-	2.g\	.
4e/	-cu-	4g\	-cu-
=177	=177	=177	=177
1f	-li	1a	-li
!	!	!LO:LB:g=original	!
=178||	=178||	=178||	=178||
2.a\	A-	2.cc\	A-
4g\	.	4b-\	.
=179	=179	=179	=179
1f	.	1a	.
=180	=180	=180	=180
2.g/	.	2.b-\	.
4f/	.	4a\	.
=181	=181	=181	=181
1e	.	1g	.
=182	=182	=182	=182
2.f/	.	2.a\	.
4e/	.	4g\	.
=183	=183	=183	=183
2f/	.	2f/	.
4e/	.	4g/	.
4f/	.	4a/	.
=184	=184	=184	=184
1e	.	1g	.
=185	=185	=185	=185
1f	-men.	1a	-men.
=186	=186	=186	=186
2.f/	A-	2.a\	A-
4e/	.	4g\	.
=187	=187	=187	=187
1f	.	1f	.
!LO:LB:g=original	!	!	!
=188	=188	=188	=188
2.g/	.	2.g/	.
4f/	.	4f/	.
=189	=189	=189	=189
1e	.	1e	.
=190	=190	=190	=190
2.f/	.	2.f/	.
4e/	.	4e/	.
=191	=191	=191	=191
2d/	.	2d/	.
2B-/	.	2B-/	.
=192	=192	=192	=192
1e	.	1c	.
=193	=193	=193	=193
1a	-men	1f	-men
!	!	!LO:LB:g=original	!
=194	=194	=194	=194
2g\	A-	2b-\	A-
2a\	.	2cc\	.
=195	=195	=195	=195
2b-\	.	2dd\	.
4a\	.	4cc\	.
4g\	.	4b-\	.
=196	=196	=196	=196
2a\	.	2cc\	.
2f/	.	2a\	.
=197	=197	=197	=197
2g/	.	2b-\	.
4f/	.	4a\	.
4e/	.	4g\	.
=198	=198	=198	=198
1f	.	1a	.
=199	=199	=199	=199
2e/	-men	2g\	-men
2f/	.	2a\	A-
=200	=200	=200	=200
!	!	!LO:TX:a:B:t=adagio	!
!LO:TX:a:B:t=ada&colon;	!	!	!
1e	A-	1g	.
!LO:LB:g=original	!	!	!
!LO:TX:t=P:problem= kolejne takty skreślone	!	!	!
=201	=201	=201	=201
1f	-men	1a	-men
==	==	==	==
*-	*-	*-	*-
!!!system-decoration: [(s1,s2)]
!!!ENC: Tomasz Grochalski
!!!END: 2020-12-10
!!!ENC: Jan Barakat
!!!END: 2022-03-28
!!!YEC: Copyright 2022 Narodowy Instytut Fryderyka Chopina (https://polishscores.org)
!!!YEM: License CC-BY-4.0 (https://creativecommons.org/licenses/by/4.0)
